X: 66
T: Hell And Scissors
B: canberra pickers and fiddlers
B: old time tunes update
B: tunes
M:2/2
L:1/16
Q: 1/2=180
K:C
V:1 
%%MIDI program 0
[A,E]8[Ec]8|B2G2B2d2^c2[E-]2[EA]4|E4A2B2[^ce]4^c2d2|e2^f2e2d2^c2d2e4|
[A,E]8[Ec]8|B2G2B2d2^c2A2A4|E4A2B2[^ce]4^c4|d2^c2B2d2^c2[E-]2[EA]4|
[A,E]8[Ec]8|B2G2B2d2^c2A2A4|E4A2B2[^ce]2A2^c2d2|e2^f2e2d2^c2d2e4|
a6[A-]2[Aa]4[A-a-]4|[Aa]2^f2e2d2^c2d2e2e2|a4g2a2b2a2g2e2|d2g2e2d2^c2^c2e4|
a6[A-]2[Aa]4g2a2|a2g2e2d2^c2d2e2e2|a2a2g2a2b2a2g2e2|d2g2e2d2^c2A2^c2d2|
[ee]6e2[ee]4e2^f2|g2e2^f4e4d4|^c2A2A2^c2A2^c2e2a2|^f4d4d4e2d2|
^c2^c2d4[ee]6e2|[ee]4e2^f2g2e2^f2a2|e2^f2e2d2^c2B2A2^c2|A2^c2e2a2^f2d2[d^f]2d2|
[d^f]4e2d2^c2B2A4| 
% abcbook-tune_id 67a7d9ec4bff4cd529b0d996
% abcbook-tune_composer_id 
% abcbook-link-0 https://www.youtube.com/watch?v=zB3SCLCRxJY
% abcbook-link-title-0 Hell And Scissors
% abcbook-boost 0
% abcbook-difficulty 0
% abcbook-tags old time tunes
% abcbook-tablature 
% abcbook-transpose -3
% abcbook-tuning AEAE
% abcbook-lastupdated 1739273302402
% abcbook-src-url 
% abcbook-soundfonts 
% abcbook-repeats 1
%%MIDI transpose -3


